X: 2
T: John Brennan's
R: reel
M: 4/4
L: 1/8
K: Dmaj
D2FA d2ed|cdBd AF~F2|BAGB ADFA|BAGF EGFE|D2FA d2ed|cdBd ADFA|BAGB ABde|(3fga eg fdd2:|f2df e2de|fedB AF~F2|BAGB ADFA|BAGF Ecde|fAdf e2de|fedB ADFA|BA^GB ABde|faea fdde|f2df efde|fedB A2FA|BAGB ADFA|BAGF EGFE|D2FA d2ed|cdBd ADFA|BAGB ABde|faeg fdd2||


Tune 404	Setting 13254

